X: 133
T:Munster Buttermilk
R:jig
M:6/8
L:1/8
K:D
A|:dcd edB|A2F FEF|A2F FEF|AFD DFA|dcd edB|A2F FEF|
AFD DEF|E3 D2A::A2B d2e|f2f fed|e2e edc|dcd edB|
A2B d2e|f2f fed|edB ABd|e3 d3:|
